Badges/Roblox-Styled/Original/link-support-me.svg

<svg width="115" height="32" viewBox="0 0 115 32" fill="none" xmlns="http://www.w3.org/2000/svg">
<g filter="url(#filter0_i_24_216)">
<rect width="115" height="32" rx="4" fill="#335FFF"/>
<path d="M17.4219 9.375C17.6562 9.10417 17.9349 8.89062 18.2578 8.73438C18.5911 8.57812 18.9453 8.5 19.3203 8.5H20.4453C20.6641 8.5 20.862 8.5599 21.0391 8.67969C21.2214 8.79948 21.3568 8.95833 21.4453 9.15625C21.5339 9.35417 21.5573 9.5625 21.5156 9.78125L21.1641 11.7578C21.4505 12.1484 21.6901 12.5625 21.8828 13H22.1641C22.4349 13 22.6823 13.0677 22.9062 13.2031C23.1354 13.3333 23.3151 13.513 23.4453 13.7422C23.5807 13.9661 23.6484 14.2135 23.6484 14.4844V17.0156C23.6484 17.2865 23.5807 17.5365 23.4453 17.7656C23.3151 17.9896 23.1354 18.1693 22.9062 18.3047C22.6823 18.4349 22.4349 18.5 22.1641 18.5H21.625C21.3073 19.0781 20.9089 19.5938 20.4297 20.0469L20.6406 21.1328C20.6875 21.388 20.6719 21.6354 20.5938 21.875C20.5156 22.1146 20.3828 22.3203 20.1953 22.4922C20.013 22.6693 19.7943 22.7891 19.5391 22.8516L18.9609 23C18.7161 23.0625 18.474 23.0625 18.2344 23C17.9948 22.9375 17.7812 22.8229 17.5938 22.6562C17.4115 22.4896 17.2786 22.2891 17.1953 22.0547L17.0625 21.6797C16.7604 21.7214 16.4557 21.7422 16.1484 21.7422C15.8828 21.7422 15.6198 21.7266 15.3594 21.6953L15.2344 22.0547C15.151 22.2891 15.0182 22.4896 14.8359 22.6562C14.6536 22.8229 14.4427 22.9375 14.2031 23C13.9635 23.0625 13.7214 23.0625 13.4766 23L12.8906 22.8516C12.6406 22.7891 12.4219 22.6693 12.2344 22.4922C12.0521 22.3203 11.9193 22.1146 11.8359 21.875C11.7578 21.6354 11.7448 21.388 11.7969 21.1328L11.9844 20.1562C11.3333 19.5729 10.8255 18.8854 10.4609 18.0938C10.0859 17.2708 9.89844 16.4036 9.89844 15.4922C9.89844 14.6068 10.0781 13.7604 10.4375 12.9531C10.4062 12.9375 10.3776 12.9193 10.3516 12.8984L9.09375 11.9609C8.88542 11.8047 8.72917 11.612 8.625 11.3828C8.52604 11.1484 8.48438 10.9062 8.5 10.6562C8.52083 10.401 8.60417 10.1641 8.75 9.94531C8.88542 9.74219 9.0599 9.58333 9.27344 9.46875C9.48698 9.35417 9.71354 9.29427 9.95312 9.28906C10.1979 9.27865 10.4297 9.33073 10.6484 9.44531L10.875 9.55469C10.9948 9.61719 11.0755 9.71354 11.1172 9.84375C11.1641 9.97396 11.1562 10.1016 11.0938 10.2266C11.0312 10.3464 10.9349 10.4297 10.8047 10.4766C10.6745 10.5182 10.5469 10.5078 10.4219 10.4453L10.2031 10.3359C10.0938 10.2839 9.97917 10.2734 9.85938 10.3047C9.74479 10.3359 9.65104 10.4036 9.57812 10.5078C9.51042 10.612 9.48698 10.7292 9.50781 10.8594C9.52865 10.9844 9.59115 11.0833 9.69531 11.1562L10.9141 12.0781C11.2891 11.5052 11.7448 11.0078 12.2812 10.5859C12.8229 10.1589 13.4167 9.83073 14.0625 9.60156C14.7344 9.36198 15.4297 9.24219 16.1484 9.24219C16.5807 9.24219 17.0052 9.28646 17.4219 9.375ZM12.9141 13.6875C13.0339 13.7552 13.1589 13.7708 13.2891 13.7344C13.4245 13.6927 13.5234 13.6094 13.5859 13.4844C13.6536 13.3594 13.7448 13.2344 13.8594 13.1094C13.974 12.9844 14.1042 12.875 14.25 12.7812C14.5469 12.5781 14.8359 12.4844 15.1172 12.5C15.2578 12.5104 15.3776 12.4714 15.4766 12.3828C15.5807 12.2891 15.6354 12.1745 15.6406 12.0391C15.651 11.8984 15.6094 11.776 15.5156 11.6719C15.4271 11.5677 15.3151 11.5104 15.1797 11.5C14.9193 11.4844 14.6536 11.5208 14.3828 11.6094C14.1432 11.6875 13.9115 11.8021 13.6875 11.9531C13.4792 12.0885 13.2891 12.25 13.1172 12.4375C12.9505 12.6198 12.8151 12.8125 12.7109 13.0156C12.6432 13.1354 12.6276 13.263 12.6641 13.3984C12.7057 13.5286 12.7891 13.625 12.9141 13.6875ZM18.6484 15C18.8307 15 18.9974 14.9557 19.1484 14.8672C19.3047 14.7786 19.4271 14.6589 19.5156 14.5078C19.6042 14.3516 19.6484 14.1823 19.6484 14C19.6484 13.8177 19.6042 13.651 19.5156 13.5C19.4271 13.3438 19.3047 13.2214 19.1484 13.1328C18.9974 13.0443 18.8307 13 18.6484 13C18.4661 13 18.2969 13.0443 18.1406 13.1328C17.9896 13.2214 17.8698 13.3438 17.7812 13.5C17.6927 13.651 17.6484 13.8177 17.6484 14C17.6484 14.1823 17.6927 14.3516 17.7812 14.5078C17.8698 14.6589 17.9896 14.7786 18.1406 14.8672C18.2969 14.9557 18.4661 15 18.6484 15Z" fill="white"/>
<path d="M31.212 20.11C30.002 20.11 29.001 19.67 28.352 18.944L29.309 17.888C29.826 18.416 30.508 18.702 31.19 18.702C32.004 18.702 32.389 18.317 32.389 17.778C32.389 17.294 32.136 16.997 31.355 16.799L30.464 16.568C29.265 16.26 28.638 15.479 28.638 14.456C28.638 13.059 29.628 12.19 31.157 12.19C32.169 12.19 33.115 12.564 33.83 13.202L32.917 14.357C32.323 13.785 31.707 13.598 31.168 13.598C30.541 13.598 30.134 13.862 30.134 14.335C30.134 14.808 30.486 15.017 31.069 15.182L32.059 15.457C33.302 15.798 33.929 16.458 33.929 17.635C33.929 19.23 32.785 20.11 31.212 20.11ZM36.8689 20.11C35.6919 20.11 34.9769 19.241 34.9769 17.987V14.236H36.3849V17.481C36.3849 18.46 36.7919 18.812 37.4189 18.812C37.9359 18.812 38.4419 18.493 38.6729 18.042V14.236H40.0809V20H38.6729V19.186L38.4969 19.12C38.1669 19.725 37.6939 20.11 36.8689 20.11ZM42.9387 22.09H41.5307V14.236H42.9387V15.05L43.1147 15.116C43.3677 14.599 43.8737 14.126 44.7317 14.126C46.0957 14.126 47.1517 15.105 47.1517 16.997C47.1517 18.889 46.0957 20.11 44.4017 20.11C43.8297 20.11 43.3457 19.956 42.9387 19.758V22.09ZM44.2917 18.812C45.1277 18.812 45.7217 18.152 45.7217 17.008C45.7217 15.908 45.1277 15.424 44.3467 15.424C43.7307 15.424 43.2357 15.721 42.9387 16.194V18.405C43.2247 18.614 43.7307 18.812 44.2917 18.812ZM49.7063 22.09H48.2983V14.236H49.7063V15.05L49.8823 15.116C50.1353 14.599 50.6413 14.126 51.4993 14.126C52.8633 14.126 53.9193 15.105 53.9193 16.997C53.9193 18.889 52.8633 20.11 51.1693 20.11C50.5973 20.11 50.1133 19.956 49.7063 19.758V22.09ZM51.0593 18.812C51.8953 18.812 52.4893 18.152 52.4893 17.008C52.4893 15.908 51.8953 15.424 51.1143 15.424C50.4983 15.424 50.0033 15.721 49.7063 16.194V18.405C49.9923 18.614 50.4983 18.812 51.0593 18.812ZM57.6068 20.11C55.8578 20.11 54.7578 18.9 54.7578 17.118C54.7578 15.336 55.8578 14.126 57.6068 14.126C59.3558 14.126 60.4558 15.336 60.4558 17.118C60.4558 18.9 59.3558 20.11 57.6068 20.11ZM57.6178 18.812C58.4538 18.812 59.0258 18.196 59.0258 17.118C59.0258 16.04 58.4538 15.424 57.6178 15.424C56.7818 15.424 56.1878 16.04 56.1878 17.118C56.1878 18.196 56.7818 18.812 57.6178 18.812ZM63.0051 20H61.5971V14.236H63.0051V15.05L63.1811 15.116C63.5001 14.489 64.0281 14.126 64.7101 14.126C64.8751 14.126 65.0511 14.148 65.2051 14.181V15.6C64.9851 15.523 64.7101 15.468 64.3581 15.468C63.7531 15.468 63.2471 15.842 63.0051 16.348V20ZM68.8452 18.812C69.1752 18.812 69.4282 18.768 69.7252 18.691V19.934C69.3842 20.044 69.0432 20.11 68.6252 20.11C67.3272 20.11 66.5682 19.373 66.5682 17.965V15.446H65.6222V14.236H66.5682V12.74H67.9762V14.236H69.6042V15.446H67.9762V17.943C67.9762 18.526 68.3282 18.812 68.8452 18.812ZM74.8778 20H73.4478V12.3H75.9778L77.4738 18.449H77.6498L79.1678 12.3H81.6978V20H80.2678V14.038H80.0918L78.6838 20H76.4838L75.0538 14.038H74.8778V20ZM85.8606 20.11C84.0896 20.11 82.9346 18.911 82.9346 17.129C82.9346 15.347 84.0896 14.126 85.7396 14.126C87.5216 14.126 88.4126 15.347 88.4126 17.052V17.547H84.3536C84.4746 18.449 85.0466 18.834 85.8606 18.834C86.4546 18.834 86.9056 18.647 87.3566 18.273L88.2036 19.285C87.5876 19.857 86.7076 20.11 85.8606 20.11ZM85.7396 15.314C85.0356 15.314 84.5736 15.677 84.3976 16.403H87.0156C86.9276 15.71 86.4656 15.314 85.7396 15.314Z" fill="white"/>
<path d="M98.625 11.1875C98.7812 11.1875 98.9141 11.2422 99.0234 11.3516C99.1328 11.4609 99.1875 11.5938 99.1875 11.75C99.1875 11.9062 99.1328 12.0391 99.0234 12.1484C98.9141 12.2578 98.7812 12.3125 98.625 12.3125H95.0625V20.1875H102.938V16.625C102.938 16.4688 102.992 16.3359 103.102 16.2266C103.211 16.1172 103.344 16.0625 103.5 16.0625C103.656 16.0625 103.789 16.1172 103.898 16.2266C104.008 16.3359 104.062 16.4688 104.062 16.625V20.375C104.062 20.543 104.02 20.6992 103.934 20.8438C103.852 20.9883 103.738 21.1016 103.594 21.1836C103.449 21.2695 103.293 21.3125 103.125 21.3125H94.875C94.707 21.3125 94.5508 21.2695 94.4062 21.1836C94.2617 21.1016 94.1465 20.9883 94.0605 20.8438C93.9785 20.6992 93.9375 20.543 93.9375 20.375V12.125C93.9375 11.957 93.9785 11.8008 94.0605 11.6562C94.1465 11.5117 94.2617 11.3984 94.4062 11.3164C94.5508 11.2305 94.707 11.1875 94.875 11.1875H98.625ZM103.5 11.1875C103.656 11.1875 103.789 11.2422 103.898 11.3516C104.008 11.4609 104.062 11.5938 104.062 11.75V14C104.062 14.1562 104.008 14.2891 103.898 14.3984C103.789 14.5078 103.656 14.5625 103.5 14.5625C103.344 14.5625 103.211 14.5078 103.102 14.3984C102.992 14.2891 102.938 14.1562 102.938 14V13.1094L99.3984 16.6484C99.2891 16.7578 99.1562 16.8125 99 16.8125C98.8438 16.8125 98.7109 16.7578 98.6016 16.6484C98.4922 16.5391 98.4375 16.4062 98.4375 16.25C98.4375 16.0938 98.4922 15.9609 98.6016 15.8516L102.141 12.3125H101.25C101.094 12.3125 100.961 12.2578 100.852 12.1484C100.742 12.0391 100.688 11.9062 100.688 11.75C100.688 11.5938 100.742 11.4609 100.852 11.3516C100.961 11.2422 101.094 11.1875 101.25 11.1875H103.5Z" fill="white"/>
</g>
<defs>
<filter id="filter0_i_24_216" x="0" y="-2" width="115" height="34" filterUnits="userSpaceOnUse" color-interpolation-filters="sRGB">
<feFlood flood-opacity="0" result="BackgroundImageFix"/>
<feBlend mode="normal" in="SourceGraphic" in2="BackgroundImageFix" result="shape"/>
<feColorMatrix in="SourceAlpha" type="matrix" values="0 0 0 0 0 0 0 0 0 0 0 0 0 0 0 0 0 0 127 0" result="hardAlpha"/>
<feOffset dy="-2"/>
<feGaussianBlur stdDeviation="1.65"/>
<feComposite in2="hardAlpha" operator="arithmetic" k2="-1" k3="1"/>
<feColorMatrix type="matrix" values="0 0 0 0 1 0 0 0 0 1 0 0 0 0 1 0 0 0 0.11 0"/>
<feBlend mode="normal" in2="shape" result="effect1_innerShadow_24_216"/>
</filter>
</defs>
</svg>

<svg xmlns="http://www.w3.org/2000/svg" width="115" height="32" fill="none">
  <g filter="url(#a)">
    <rect width="115" height="32" fill="#335fff" rx="4"/>
    <path fill="#fff" d="M17.422 9.375a2.6 2.6 0 0 1 .836-.64A2.5 2.5 0 0 1 19.32 8.5h1.125q.33 0 .594.18.274.18.406.476.133.297.07.625l-.35 1.977q.429.586.718 1.242h.281q.406 0 .742.203.345.195.54.54.202.335.202.741v2.532q0 .405-.203.75-.195.335-.539.539a1.45 1.45 0 0 1-.742.195h-.539a6.3 6.3 0 0 1-1.195 1.547l.21 1.086a1.5 1.5 0 0 1-.046.742q-.117.36-.399.617a1.4 1.4 0 0 1-.656.36l-.578.148a1.43 1.43 0 0 1-.727 0 1.5 1.5 0 0 1-.64-.344 1.5 1.5 0 0 1-.399-.601l-.133-.375a6.7 6.7 0 0 1-1.703.015l-.125.36a1.5 1.5 0 0 1-.398.601 1.48 1.48 0 0 1-1.36.344l-.585-.148a1.45 1.45 0 0 1-.657-.36 1.5 1.5 0 0 1-.398-.617 1.43 1.43 0 0 1-.04-.742l.188-.977a6.25 6.25 0 0 1-1.523-2.062 6.2 6.2 0 0 1-.563-2.602q0-1.328.54-2.539a.5.5 0 0 1-.086-.055l-1.258-.937a1.5 1.5 0 0 1-.469-.578 1.6 1.6 0 0 1-.125-.727 1.5 1.5 0 0 1 .25-.71q.203-.306.523-.477.32-.172.68-.18.368-.015.695.156l.227.11q.18.094.242.289a.47.47 0 0 1-.023.383.49.49 0 0 1-.672.219l-.219-.11a.49.49 0 0 0-.625.172.48.48 0 0 0-.07.351q.03.188.187.297l1.22.922q.562-.86 1.366-1.492a6.22 6.22 0 0 1 3.867-1.344q.649 0 1.274.133m-4.508 4.313a.475.475 0 0 0 .672-.204q.102-.187.273-.375.172-.187.391-.328.446-.305.867-.281.21.015.36-.117a.47.47 0 0 0 .164-.344.48.48 0 0 0-.125-.367.47.47 0 0 0-.336-.172q-.39-.024-.797.11-.36.117-.695.343a3 3 0 0 0-.57.485 2.7 2.7 0 0 0-.407.578.474.474 0 0 0 .203.672M18.648 15a.97.97 0 0 0 .5-.133.97.97 0 0 0 .5-.867.97.97 0 0 0-.132-.5.96.96 0 0 0-.368-.367.97.97 0 0 0-.5-.133q-.273 0-.507.133a1 1 0 0 0-.36.367.97.97 0 0 0-.133.5q0 .273.133.508a.99.99 0 0 0 .867.492m12.564 5.11c-1.21 0-2.211-.44-2.86-1.166l.957-1.056a2.65 2.65 0 0 0 1.881.814c.814 0 1.199-.385 1.199-.924 0-.484-.253-.781-1.034-.979l-.891-.231c-1.199-.308-1.826-1.089-1.826-2.112 0-1.397.99-2.266 2.519-2.266a4 4 0 0 1 2.673 1.012l-.913 1.155c-.594-.572-1.21-.759-1.749-.759-.627 0-1.034.264-1.034.737s.352.682.935.847l.99.275c1.243.341 1.87 1.001 1.87 2.178 0 1.595-1.144 2.475-2.717 2.475m5.657 0c-1.177 0-1.892-.869-1.892-2.123v-3.751h1.408v3.245c0 .979.407 1.331 1.034 1.331.517 0 1.023-.319 1.254-.77v-3.806h1.408V20h-1.408v-.814l-.176-.066c-.33.605-.803.99-1.628.99m6.07 1.98H41.53v-7.854h1.408v.814l.176.066c.253-.517.759-.99 1.617-.99 1.364 0 2.42.979 2.42 2.871s-1.056 3.113-2.75 3.113a3.3 3.3 0 0 1-1.463-.352zm1.353-3.278c.836 0 1.43-.66 1.43-1.804 0-1.1-.594-1.584-1.375-1.584-.616 0-1.111.297-1.408.77v2.211c.286.209.792.407 1.353.407m5.414 3.278h-1.408v-7.854h1.408v.814l.176.066c.253-.517.76-.99 1.617-.99 1.364 0 2.42.979 2.42 2.871s-1.056 3.113-2.75 3.113a3.3 3.3 0 0 1-1.463-.352zm1.353-3.278c.836 0 1.43-.66 1.43-1.804 0-1.1-.594-1.584-1.375-1.584-.616 0-1.11.297-1.408.77v2.211c.286.209.792.407 1.353.407m6.548 1.298c-1.75 0-2.85-1.21-2.85-2.992s1.1-2.992 2.85-2.992 2.849 1.21 2.849 2.992-1.1 2.992-2.85 2.992m.01-1.298c.837 0 1.409-.616 1.409-1.694s-.572-1.694-1.408-1.694-1.43.616-1.43 1.694.594 1.694 1.43 1.694M63.006 20h-1.408v-5.764h1.408v.814l.176.066c.32-.627.847-.99 1.53-.99.164 0 .34.022.494.055V15.6a2.5 2.5 0 0 0-.847-.132c-.605 0-1.11.374-1.353.88zm5.84-1.188c.33 0 .583-.044.88-.121v1.243c-.34.11-.682.176-1.1.176-1.298 0-2.057-.737-2.057-2.145v-2.519h-.946v-1.21h.946V12.74h1.408v1.496h1.628v1.21h-1.628v2.497c0 .583.352.869.87.869M74.878 20h-1.43v-7.7h2.53l1.496 6.149h.176l1.518-6.149h2.53V20h-1.43v-5.962h-.176L78.684 20h-2.2l-1.43-5.962h-.176zm10.983.11c-1.771 0-2.926-1.199-2.926-2.981s1.155-3.003 2.805-3.003c1.782 0 2.673 1.221 2.673 2.926v.495h-4.06c.122.902.694 1.287 1.508 1.287.594 0 1.045-.187 1.496-.561l.847 1.012c-.616.572-1.496.825-2.343.825m-.121-4.796c-.704 0-1.166.363-1.342 1.089h2.618c-.088-.693-.55-1.089-1.276-1.089m12.885-4.126q.235 0 .398.164.165.164.165.398t-.165.398a.54.54 0 0 1-.398.165h-3.562v7.874h7.875v-3.562a.54.54 0 0 1 .164-.398.54.54 0 0 1 .398-.165q.234 0 .398.165a.54.54 0 0 1 .164.398v3.75a.9.9 0 0 1-.128.469.9.9 0 0 1-.34.34.9.9 0 0 1-.469.128h-8.25a.9.9 0 0 1-.469-.128.93.93 0 0 1-.346-.34.93.93 0 0 1-.123-.469v-8.25q0-.252.124-.469a.93.93 0 0 1 .345-.34.9.9 0 0 1 .469-.129zm4.875 0q.234 0 .398.164a.54.54 0 0 1 .164.398V14a.54.54 0 0 1-.164.398.54.54 0 0 1-.398.165.54.54 0 0 1-.398-.165.54.54 0 0 1-.164-.398v-.89l-3.54 3.538a.54.54 0 0 1-.398.165.54.54 0 0 1-.398-.165.54.54 0 0 1-.165-.398q0-.235.165-.398l3.539-3.54h-.891a.54.54 0 0 1-.398-.164.54.54 0 0 1-.164-.398.54.54 0 0 1 .164-.398.54.54 0 0 1 .398-.165z"/>
  </g>
  <defs>
    <filter id="a" width="115" height="34" x="0" y="-2" color-interpolation-filters="sRGB" filterUnits="userSpaceOnUse">
      <feFlood flood-opacity="0" result="BackgroundImageFix"/>
      <feBlend in="SourceGraphic" in2="BackgroundImageFix" result="shape"/>
      <feColorMatrix in="SourceAlpha" result="hardAlpha" values="0 0 0 0 0 0 0 0 0 0 0 0 0 0 0 0 0 0 127 0"/>
      <feOffset dy="-2"/>
      <feGaussianBlur stdDeviation="1.65"/>
      <feComposite in2="hardAlpha" k2="-1" k3="1" operator="arithmetic"/>
      <feColorMatrix values="0 0 0 0 1 0 0 0 0 1 0 0 0 0 1 0 0 0 0.11 0"/>
      <feBlend in2="shape" result="effect1_innerShadow_24_216"/>
    </filter>
  </defs>
</svg>
